X:71
T:Week 7 homework
L:1/1
M:4/4
K:Bbminor
V:Treble
[Ad]|[Ad]|[Ad]|[A=d]|
[Gd]|[Gd]|[Ad]|[Ad]|
[Be]|[Ae]|[Ad]|[Ae]||
V:Bass
B,,|B,,|B,,|B,,| E,|E,|B,,|B,,| C,|F,|B,,|F,||

